X:1107
T:Wedding Fanfare
C:Colin Hume, 1998
L:1/8
M:4/4
R:Reel
S:Colin Hume's website,  colinhume.com  - chords can also be printed below the stave.
Q:1/4=120
H:Played at the end of Renata and Colin's wedding
K:G
P:A
V:1
%%MIDI gchord b
%%MIDI program 64       % Soprano Sax
%%MIDI bassprog 21      % Accordion
%%MIDI chordprog 21     % Accordion
!segno! "G"G2 (3GGG GDGB | "D"A4 z4 | "D"A2 (3AAA AD Ac | "G"B4 z4 |
"C"c2 (3ccc c4 | "D"d2 (3ddd d4 | "C"e2 (3eee eceg | "D"f2 (3fff fdfa [I: MIDI=gchordoff] |
V:2 treble
z8 | z2 [Fd]3/[Fd]/ [Fd][DA][A,F][DA] | [DF]4 z4 | z2 [Bg]3/[Bg]/ [Bg][Gd][DB][Gd] |
[EG]4 [CE][G,C][CE][EG] | [DF]4 [A,F][F,D][A,F][CA] | [EG]4 [EG]2[EG]2 | [FA]4 [FA]2[FA]2 |
P:B
V:1
%%MIDI program 21       % Accordion
!fine! !mp! G4 D4 | E2DC D2G,2 | C4 CDEC | D2E2 F4 |
G4 D4 | G4E3E | E2D2 E2A2 | F2G2 A2F2 |
G2AB c2A2 | BAGF E2B2 | c2de c4 | ABcA d2c2 |
B2AB c2Bc | d4 D4 | EFGA FGAB | GABc !D.C.alfine! ABcd |
V:2
%%MIDI gchord cc
%%MIDI chordprog 41     % Viola
%%MIDI bassprog 43      % Contrabass
%%MIDI chordvol 60
"G"G2D2 B,CD2 | "Em"G,6 A,B, | "C"C2E,2 "Am"E,F,G,B, | "D"A,4- "D7"A,2D2 |
"G"G2D2 B,CD2 | "Em"E2B,2 G,A,B,2 | "Am"C4 CEDC | "D"D4-D2D2 |
"C"E4 "Am"EAFE | "Bm"D2EF "Em"G4 | "C"E2FG "Am"A2E2 | "D"F4- "D7"F2EF |
"Em"G4 "C"EFGA | "D"F3E D3B, | "Am"C2B,C "Bm"D4 | "C"E2DE "D7"F2EF |

